X: 40
T: Ding dong Merrily On High
C: Arr. Edw Huws-Jones
M: 4/4
K: D
L: 1/4
"D" !mf! [dF] d (e/d/)(c/B/) | ([A3D] E F) A | "G" B d "A" d c | "D" ([d2D] E) [d2F2] |
[dF] d (e/d/)(c/B/) | ([A3D] E F) A | "D" B d "A" d c | ([d2D] E) [d2F2] | "D" (a>g) (f/g/)(a/f/) |
"Em" (g>f) (e/f/)(g/e/) | "D" (f>e) (d/e/)(f/d) | "Em" (e>d) "A" (c/d/)(e/c/) | "G" (d>c) (B/c/)(d/B/) | "A" (c>B) "D" A A |
"G" B d "A" d c | "D" [d2(F]E) [d2D2] | !f! ([A/D/] a g/) (f/g/)(a/f/) | "Em" ([B/E/] g f/) (e/f/g/e/) | "D" ([A/F/] f e/) (d/e/f/d/) |
"Em" (G/ e d/) "A" (c/d/e/c/) | "Bm" (F/ d c/) (B/c/d/B/) | "A" (E/ c B/) "D" ([AF] [AF]) | "G" [BG] "D" [dF] "Em" [dE] "A" [cE] | "D" [d2(F] E/F/) [d2D2] |]

%% transpose 3

